X:13025
T:Mother And Child
T:Mother's Little Pet
R:Reel
C:Trad.
O:Ireland
Z:Paul Hardy's Session Tunebook 2015 (see www.paulhardy.net). Creative Commons cc by-nc-sa licenced.
M:4/4
L:1/8
Q:1/4=120
K:D
"D"A2GE FDD2|"Em"EFGD EFGE|"D"A2GE FDDF|"A"EFGE "D"A2AB:|
|:"A"cAAB cdeg|"D"fdec dcAB|"A"cAAB cdeg|"D"fdec d2ed:|

